src/assets/icons/person1.svg

<?xml version="1.0" encoding="UTF-8"?>
<svg fill="none" viewBox="0 0 120 120" xmlns="http://www.w3.org/2000/svg">
<g clip-path="url(#a)">
<path d="m120 60c0-33.132-26.868-60-60-60s-60 26.868-60 60 26.868 60 60 60 60-26.868 60-60z" fill="#32BEA6"/>
<path d="m69.408 68.222h-18.815c2.9263 8.8513 0.2419 12.89 0.2419 12.89l6.5054 1.4752h5.3204l6.5055-1.4752s-2.6844-4.0387 0.2418-12.89z" fill="#E2A379"/>
<path d="m60.024 94.341c10.859 0 9.1415-13.228 9.1415-13.228s-2.1524 4.1838-9.214 4.1838c-7.0617 0-9.0689-4.1838-9.0689-4.1838s-1.7171 13.228 9.1414 13.228z" fill="#E2A379"/>
<path d="m59.928 80.629c-18.67 0-33.64 5.3446-35.405 11.923-0.7981 2.9504-1.6929 8.5126-2.4426 13.906 10.326 8.44 23.555 13.519 37.944 13.519s27.594-5.079 37.944-13.519c-0.7739-5.393-1.6687-10.979-2.4426-13.906-1.8138-6.578-16.953-11.923-35.598-11.923z" fill="#E2A379"/>
<path d="m59.928 80.629c-18.67 0-33.64 5.3446-35.405 11.923-0.7981 2.9504-1.6929 8.5126-2.4426 13.906 10.326 8.44 23.555 13.519 37.944 13.519s27.594-5.079 37.944-13.519c-0.7739-5.393-1.6687-10.979-2.4426-13.906-1.8138-6.578-16.953-11.923-35.598-11.923z" fill="#E9F2F4"/>
<path d="m59.903 80.629h-1.0399-0.266-0.7739-0.1693c-4.7642 0.0725-9.1657 0.4353-12.793 0.9915 0 0 0.9673 9.1657 0.9673 14.172l14.148 16.687 14.099-16.663c0-10.302-0.0242-14.244-0.0242-14.244-4.0387-0.6046-8.682-0.9432-14.148-0.9432z" fill="#78DDF4"/>
<path d="m69.408 68.222h-18.815c2.9263 8.8513 0.2419 12.89 0.2419 12.89l6.5054 1.4752h5.3204l6.5055-1.4752s-2.6844-4.0387 0.2418-12.89z" fill="#E2A379"/>
<path d="m60 82.273-3.7969 1.1366s1.306 6.1911 3.7969 6.1911 3.7968-6.1911 3.7968-6.1911l-3.7968-1.1366z" fill="#9B1818"/>
<path d="m60 113.4s3.8936-7.11 5.7315-11.076l-4.7642-15.889h-1.9589l-4.7158 15.816c1.838 3.99 5.7074 11.149 5.7074 11.149z" fill="#9B1818"/>
<path d="m74.123 81.403-4.4982-3.9178-9.6251 4.7884s14.051 7.9323 14.123 7.8839v-8.7545z" fill="#4ECFF2"/>
<path d="m86.578 85.03-15.647-6.457-10.931 34.873 19.806-23.216-2.6602-2.6602h3.9903l5.4414-2.5393z" fill="#C9DEE2"/>
<path d="m45.877 81.403 4.4982-3.9178 9.6252 4.8126s-14.051 7.9322-14.099 7.8839v-8.7787h-0.0242z" fill="#4ECFF2"/>
<path d="m33.398 85.03 15.72-6.457 10.883 34.873-19.831-23.216 2.6602-2.6602h-3.9903l-5.4414-2.5393z" fill="#C9DEE2"/>
<path d="m51.947 75.453c-8.4402 2.0799-14.462 7.3036-14.462 13.398v20.629h1.2092v-20.629c0-5.4898 5.4897-10.206 13.228-12.164 0.0484-0.3869 0.0484-0.798 0.0242-1.2334z" fill="#3F3F3F"/>
<path d="m68.053 75.453c0 0.4354 0 0.8465 0.0241 1.2334 7.763 1.9589 13.229 6.6747 13.229 12.164v3.7968h1.2092v-3.7726c0-6.1185-6.0218-11.342-14.462-13.422z" fill="#3F3F3F"/>
<path d="m38.114 111.42c2.2306 0 4.0387-1.808 4.0387-4.039 0-2.23-1.8081-4.039-4.0387-4.039-2.2305 0-4.0386 1.809-4.0386 4.039 0 2.231 1.8081 4.039 4.0386 4.039z" fill="#5E5E5E"/>
<path d="m38.114 110.91c1.95 0 3.5308-1.581 3.5308-3.531s-1.5808-3.531-3.5308-3.531c-1.9501 0-3.5309 1.581-3.5309 3.531s1.5808 3.531 3.5309 3.531z" fill="#828282"/>
<path d="m38.114 109.87c1.3757 0 2.4909-1.115 2.4909-2.491s-1.1152-2.491-2.4909-2.491-2.491 1.115-2.491 2.491 1.1153 2.491 2.491 2.491z" fill="#5E5E5E"/>
<path d="m38.114 109.17c0.9884 0 1.7896-0.802 1.7896-1.79s-0.8012-1.79-1.7896-1.79c-0.9883 0-1.7896 0.802-1.7896 1.79s0.8013 1.79 1.7896 1.79z" fill="#828282"/>
<path d="m84.498 111.08c-1.4027 0-3.2648-0.024-4.861-0.87-2.0072-1.065-3.0471-3.169-3.0471-6.216v-5.2234h0.9673v5.2234c0 2.709 0.8223 4.474 2.5152 5.369 1.451 0.774 3.2406 0.774 4.5707 0.774h0.1451v0.967h-0.1451c-0.0484-0.024-0.0967-0.024-0.1451-0.024z" fill="#69696B"/>
<path d="m85.828 110.59c0 0.556-0.4595 1.015-1.0157 1.015s-1.0157-0.459-1.0157-1.015c0-0.557 0.4595-1.016 1.0157-1.016 0.532-0.024 1.0157 0.435 1.0157 1.016z" fill="#69696B"/>
<path d="m79.274 111.05h-0.1451-0.1451v-0.967h0.1451c1.3059 0 3.1197 0 4.5708-0.774 1.6928-0.895 2.5151-2.66 2.5151-5.369v-5.2237h0.9673v5.2237c0 3.071-1.0157 5.151-3.0471 6.215-1.5962 0.871-3.4583 0.895-4.861 0.895z" fill="#8D8D8E"/>
<path d="m77.969 110.57c0 0.557 0.4595 1.016 1.0157 1.016s1.0157-0.459 1.0157-1.016c0-0.556-0.4595-1.015-1.0157-1.015-0.5562-0.025-1.0157 0.435-1.0157 1.015z" fill="#8D8D8E"/>
<path d="m86.699 99.347c-0.3386 0-0.6046-0.266-0.6046-0.6046v-1.5961c0-2.3216-1.8863-4.208-4.208-4.208-2.3216 0-4.2079 1.8864-4.2079 4.208v1.5961c0 0.3386-0.2661 0.6046-0.6046 0.6046-0.3386 0-0.6046-0.266-0.6046-0.6046v-1.5961c0-2.9746 2.4184-5.4172 5.4171-5.4172 2.9988 0 5.4172 2.4184 5.4172 5.4172v1.5961c0 0.3144-0.266 0.6046-0.6046 0.6046z" fill="#3F3F3F"/>
<path d="m79.299 42.37c0-22.346-8.6336-27.473-19.299-27.473-10.641 0-19.299 5.127-19.299 27.473 0 7.5695 1.3542 13.495 3.3857 18.065 4.4498 10.06 12.164 13.567 15.913 13.567s11.439-3.5066 15.913-13.567c2.0314-4.5707 3.3857-10.496 3.3857-18.065z" fill="#F4B382"/>
<path d="m50.036 41.016c-4.6191 0-8.3917 0.7981-8.3917 6.578 0 3.6518 2.0798 7.2793 8.3917 7.2793 4.6192 0 8.3918-3.6517 8.3918-7.2793s-3.7485-6.578-8.3918-6.578zm0 12.43c-5.006 0-6.6505-2.9021-6.6505-5.7799 0-4.595 2.9746-5.2237 6.6505-5.2237 3.676 0 6.6506 2.3458 6.6506 5.2237 0 2.8778-2.9746 5.7799-6.6506 5.7799z" fill="#261D17"/>
<path d="m50.036 42.443c-3.676 0-6.6506 0.6529-6.6506 5.2237 0 2.8778 1.6445 5.7799 6.6506 5.7799 3.6759 0 6.6505-2.9021 6.6505-5.7799 0-2.8779-2.9746-5.2237-6.6505-5.2237z" fill="#F4C4A4"/>
<path d="m50.036 42.443c-3.676 0-6.6506 0.6529-6.6506 5.2237 0 2.4183 1.1609 4.8367 4.474 5.5622l3.9904-10.592c-0.5804-0.1209-1.185-0.1934-1.8138-0.1934z" fill="#F4CCB0"/>
<path d="m56.687 47.666c0-2.3942-2.0556-4.4015-4.8367-5.0303l-3.9662 10.592c0.6288 0.1451 1.3543 0.2177 2.1766 0.2177 3.6517 0 6.6263-2.9021 6.6263-5.7799z" fill="#F4C4A4"/>
<path d="m42.66 45.635c-0.2176 0-0.4353-0.0967-0.6046-0.266l-3.2164-3.5066c-0.3144-0.3386-0.2902-0.8707 0.0483-1.1609 0.3386-0.3144 0.8707-0.2902 1.1609 0.0484l3.2164 3.5067c0.3144 0.3385 0.2902 0.8706-0.0484 1.1608-0.1451 0.1451-0.3385 0.2176-0.5562 0.2176z" fill="#261D17"/>
<path d="m77.485 45.635c0.2177 0 0.4353-0.0967 0.6046-0.266l3.2164-3.5066c0.3144-0.3386 0.2902-0.8707-0.0483-1.1609-0.3386-0.3144-0.8706-0.2902-1.1608 0.0484l-3.2165 3.5067c-0.3144 0.3385-0.2902 0.8706 0.0484 1.1608 0.1693 0.1451 0.3627 0.2176 0.5562 0.2176z" fill="#261D17"/>
<path d="m61.548 47.594c0 3.6518 3.7485 7.2793 8.3918 7.2793 6.312 0 8.3918-3.6517 8.3918-7.2793 0-5.7799-3.7485-6.578-8.3918-6.578s-8.3918 2.9505-8.3918 6.578zm1.7413 0.0726c0-2.8779 2.9746-5.2237 6.6505-5.2237s6.6506 0.6529 6.6506 5.2237c0 2.8778-1.6445 5.7799-6.6506 5.7799-3.6759 0-6.6505-2.9021-6.6505-5.7799z" fill="#261D17"/>
<path d="m69.94 42.443c3.676 0 6.6506 0.6529 6.6506 5.2237 0 2.8778-1.6445 5.7799-6.6506 5.7799-3.6759 0-6.6505-2.9021-6.6505-5.7799 0-2.8779 2.9746-5.2237 6.6505-5.2237z" fill="#F4C4A4"/>
<path d="m69.94 42.443c-0.6287 0-1.2333 0.0725-1.8137 0.1934-2.7812 0.6288-4.8368 2.6361-4.8368 5.0303s2.0314 4.7884 4.8126 5.5381l3.9903-10.641c-0.6771-0.0968-1.4027-0.1209-2.1524-0.1209z" fill="#F4CCB0"/>
<path d="m72.092 53.228c3.3132-0.7255 4.474-3.1439 4.474-5.5622 0-3.6276-1.8622-4.7884-4.474-5.1028l-3.9903 10.641c0.5804 0.1693 1.185 0.2419 1.8379 0.2419 0.7981 0 1.5236-0.0726 2.1524-0.2177z" fill="#F4C4A4"/>
<path d="m62.95 48.513h-5.2479c-0.0483 0-1.451-2.8779-1.3784-2.8779h7.3035c0.0725 0-0.6288 2.8779-0.6772 2.8779z" fill="#261D17"/>
<path d="m62.491 48.537c-0.7255-0.5079-1.5961-1.0157-2.5393-1.0157-0.7013 0-1.4026 0.3869-1.983 0.6771-0.9432 0.4837-0.9432 3.0714-0.9432 3.0714 0.532-1.1367 1.6929-1.8622 2.9504-1.8622 1.2334 0 2.3942 0.7255 2.9504 1.8622-0.0241 0.0241 0.2661-2.2491-0.4353-2.7328z" fill="#261D17"/>
<path d="m38.863 50.23c1.0399 6.0943 2.3216 6.3603 4.1838 6.0459l-1.9589-13.253c-1.8622 0.3386-3.2649 1.1366-2.2249 7.2068z" fill="#F4B382"/>
<path d="m78.96 43.047-1.9589 13.253c1.838 0.3144 3.1439 0.0242 4.1838-6.046 1.0157-6.0943-0.3869-6.8923-2.2249-7.2067z" fill="#F4B382"/>
<path d="m80 50.81c23.99-23.99-6.1185-35.913-20-35.913s-43.724 12.164-20 35.913l2.2974-9.4075c11.076 0 20.532-6.5055 27.376-12.648 2.9021 8.0291 10.326 22.056 10.326 22.056z" fill="#3A1D12"/>
<path d="m66.457 63.797s-3.4341 2.3216-6.4571 2.3216-6.4571-2.3216-6.4571-2.3216c0-0.3386 2.7328-1.2818 3.8936-1.4511 0.7255-0.1209 2.5635 0.6046 2.5635 0.6046s1.8138-0.7013 2.5151-0.6046c1.185 0.1693 3.942 1.4511 3.942 1.4511z" fill="#CC785E"/>
<path d="m66.457 63.797s-3.4341 3.2649-6.4571 3.2649-6.4571-3.2649-6.4571-3.2649 1.572 0.3628 4.74 0.1693c0.5321-0.0241 1.2334 0.387 1.6929 0.387 0.4111 0 1.0157-0.4353 1.4752-0.4112 3.3374 0.1935 5.0061-0.1451 5.0061-0.1451z" fill="#C16952"/>
</g>
<defs>
<clipPath id="a">
<rect width="120" height="120" fill="#fff"/>
</clipPath>
</defs>
</svg>

<svg width="120" height="120" viewBox="0 0 120 120" fill="none" xmlns="http://www.w3.org/2000/svg">
<g clip-path="url(#clip0_2_2)">
<path d="M120 60C120 26.8682 93.1318 0 60 0C26.8682 0 0 26.8682 0 60C0 93.1318 26.8682 120 60 120C93.1318 120 120 93.1318 120 60Z" fill="#32BEA6"/>
<path d="M69.4075 68.2225H50.5925C53.5188 77.0738 50.8344 81.1125 50.8344 81.1125L57.3398 82.5877H62.6602L69.1657 81.1125C69.1657 81.1125 66.4813 77.0738 69.4075 68.2225Z" fill="#E2A379"/>
<path d="M60.0242 94.341C70.8828 94.341 69.1657 81.1125 69.1657 81.1125C69.1657 81.1125 67.0133 85.2963 59.9517 85.2963C52.89 85.2963 50.8828 81.1125 50.8828 81.1125C50.8828 81.1125 49.1657 94.341 60.0242 94.341Z" fill="#E2A379"/>
<path d="M59.9275 80.6288C41.2576 80.6288 26.2878 85.9734 24.5224 92.5514C23.7243 95.5018 22.8295 101.064 22.0798 106.457C32.4063 114.897 45.6348 119.976 60.0242 119.976C74.4136 119.976 87.6179 114.897 97.9686 106.457C97.1947 101.064 96.2999 95.4776 95.526 92.5514C93.7122 85.9734 78.5732 80.6288 59.9275 80.6288Z" fill="#E2A379"/>
<path d="M59.9275 80.6288C41.2576 80.6288 26.2878 85.9734 24.5224 92.5514C23.7243 95.5018 22.8295 101.064 22.0798 106.457C32.4063 114.897 45.6348 119.976 60.0242 119.976C74.4136 119.976 87.6179 114.897 97.9686 106.457C97.1947 101.064 96.2999 95.4776 95.526 92.5514C93.7122 85.9734 78.5732 80.6288 59.9275 80.6288Z" fill="#E9F2F4"/>
<path d="M59.9033 80.6288C59.5647 80.6288 59.202 80.6288 58.8634 80.6288C58.7666 80.6288 58.6699 80.6288 58.5974 80.6288C58.3313 80.6288 58.0895 80.6288 57.8235 80.6288C57.7751 80.6288 57.7026 80.6288 57.6542 80.6288C52.89 80.7013 48.4885 81.0641 44.861 81.6203C44.861 81.6203 45.8283 90.786 45.8283 95.792L59.9758 112.479L74.075 95.8162C74.075 85.5139 74.0508 81.572 74.0508 81.572C70.0121 80.9674 65.3688 80.6288 59.9033 80.6288Z" fill="#78DDF4"/>
<path d="M69.4075 68.2225H50.5925C53.5188 77.0738 50.8344 81.1125 50.8344 81.1125L57.3398 82.5877H62.6602L69.1657 81.1125C69.1657 81.1125 66.4813 77.0738 69.4075 68.2225Z" fill="#E2A379"/>
<path d="M60 82.2733L56.2031 83.4099C56.2031 83.4099 57.5091 89.601 60 89.601C62.4909 89.601 63.7968 83.4099 63.7968 83.4099L60 82.2733Z" fill="#9B1818"/>
<path d="M60 113.398C60 113.398 63.8936 106.288 65.7315 102.322L60.9673 86.4329H59.0084L54.2926 102.249C56.1306 106.239 60 113.398 60 113.398Z" fill="#9B1818"/>
<path d="M74.1233 81.4027L69.6251 77.4849L60 82.2733C60 82.2733 74.0508 90.2056 74.1233 90.1572V81.4027Z" fill="#4ECFF2"/>
<path d="M86.578 85.0302L70.9311 78.5732L60 113.446L79.8065 90.2297L77.1463 87.5695H81.1366L86.578 85.0302Z" fill="#C9DEE2"/>
<path d="M45.8766 81.4027L50.3748 77.4849L60 82.2975C60 82.2975 45.9492 90.2297 45.9008 90.1814V81.4027H45.8766Z" fill="#4ECFF2"/>
<path d="M33.3978 85.0302L49.1173 78.5732L60 113.446L40.1693 90.2297L42.8295 87.5695H38.8392L33.3978 85.0302Z" fill="#C9DEE2"/>
<path d="M51.9468 75.4534C43.5066 77.5333 37.4849 82.757 37.4849 88.8513V109.48H38.6941V88.8513C38.6941 83.3615 44.1838 78.6457 51.9226 76.6868C51.971 76.2999 51.971 75.8888 51.9468 75.4534Z" fill="#3F3F3F"/>
<path d="M68.0532 75.4534C68.0532 75.8888 68.0532 76.2999 68.0773 76.6868C75.8403 78.6457 81.3059 83.3615 81.3059 88.8513V92.6481H82.5151V88.8755C82.5151 82.757 76.4933 77.5333 68.0532 75.4534Z" fill="#3F3F3F"/>
<path d="M38.1136 111.415C40.3442 111.415 42.1523 109.607 42.1523 107.376C42.1523 105.146 40.3442 103.337 38.1136 103.337C35.8831 103.337 34.075 105.146 34.075 107.376C34.075 109.607 35.8831 111.415 38.1136 111.415Z" fill="#5E5E5E"/>
<path d="M38.1137 110.907C40.0637 110.907 41.6445 109.326 41.6445 107.376C41.6445 105.426 40.0637 103.845 38.1137 103.845C36.1636 103.845 34.5828 105.426 34.5828 107.376C34.5828 109.326 36.1636 110.907 38.1137 110.907Z" fill="#828282"/>
<path d="M38.1137 109.867C39.4894 109.867 40.6046 108.752 40.6046 107.376C40.6046 106 39.4894 104.885 38.1137 104.885C36.738 104.885 35.6227 106 35.6227 107.376C35.6227 108.752 36.738 109.867 38.1137 109.867Z" fill="#5E5E5E"/>
<path d="M38.1136 109.166C39.102 109.166 39.9032 108.364 39.9032 107.376C39.9032 106.388 39.102 105.586 38.1136 105.586C37.1253 105.586 36.324 106.388 36.324 107.376C36.324 108.364 37.1253 109.166 38.1136 109.166Z" fill="#828282"/>
<path d="M84.4982 111.076C83.0955 111.076 81.2334 111.052 79.6372 110.206C77.63 109.141 76.5901 107.037 76.5901 103.99V98.7666H77.5574V103.99C77.5574 106.699 78.3797 108.464 80.0726 109.359C81.5236 110.133 83.3132 110.133 84.6433 110.133H84.7884V111.1H84.6433C84.5949 111.076 84.5466 111.076 84.4982 111.076Z" fill="#69696B"/>
<path d="M85.8283 110.593C85.8283 111.149 85.3688 111.608 84.8126 111.608C84.2564 111.608 83.7969 111.149 83.7969 110.593C83.7969 110.036 84.2564 109.577 84.8126 109.577C85.3446 109.553 85.8283 110.012 85.8283 110.593Z" fill="#69696B"/>
<path d="M79.2745 111.052C79.2261 111.052 79.1778 111.052 79.1294 111.052H78.9843V110.085H79.1294C80.4353 110.085 82.2491 110.085 83.7002 109.311C85.393 108.416 86.2153 106.651 86.2153 103.942V98.7183H87.1826V103.942C87.1826 107.013 86.1669 109.093 84.1355 110.157C82.5393 111.028 80.6772 111.052 79.2745 111.052Z" fill="#8D8D8E"/>
<path d="M77.9686 110.568C77.9686 111.125 78.4281 111.584 78.9843 111.584C79.5405 111.584 80 111.125 80 110.568C80 110.012 79.5405 109.553 78.9843 109.553C78.4281 109.528 77.9686 109.988 77.9686 110.568Z" fill="#8D8D8E"/>
<path d="M86.6989 99.347C86.3603 99.347 86.0943 99.081 86.0943 98.7424V97.1463C86.0943 94.8247 84.208 92.9383 81.8863 92.9383C79.5647 92.9383 77.6784 94.8247 77.6784 97.1463V98.7424C77.6784 99.081 77.4123 99.347 77.0738 99.347C76.7352 99.347 76.4692 99.081 76.4692 98.7424V97.1463C76.4692 94.1717 78.8876 91.7291 81.8863 91.7291C84.8851 91.7291 87.3035 94.1475 87.3035 97.1463V98.7424C87.3035 99.0568 87.0375 99.347 86.6989 99.347Z" fill="#3F3F3F"/>
<path d="M79.2987 42.37C79.2987 20.0242 70.6651 14.8972 60 14.8972C49.3592 14.8972 40.7014 20.0242 40.7014 42.37C40.7014 49.9395 42.0556 55.8646 44.0871 60.4353C48.5369 70.4958 56.2515 74.0024 60 74.0024C63.7485 74.0024 71.439 70.4958 75.913 60.4353C77.9444 55.8646 79.2987 49.9395 79.2987 42.37Z" fill="#F4B382"/>
<path d="M50.0362 41.0157C45.4171 41.0157 41.6445 41.8138 41.6445 47.5937C41.6445 51.2455 43.7243 54.873 50.0362 54.873C54.6554 54.873 58.428 51.2213 58.428 47.5937C58.428 43.9661 54.6795 41.0157 50.0362 41.0157ZM50.0362 53.4462C45.0302 53.4462 43.3857 50.5441 43.3857 47.6663C43.3857 43.0713 46.3603 42.4426 50.0362 42.4426C53.7122 42.4426 56.6868 44.7884 56.6868 47.6663C56.6868 50.5441 53.7122 53.4462 50.0362 53.4462Z" fill="#261D17"/>
<path d="M50.0363 42.4426C46.3603 42.4426 43.3857 43.0955 43.3857 47.6663C43.3857 50.5441 45.0302 53.4462 50.0363 53.4462C53.7122 53.4462 56.6868 50.5441 56.6868 47.6663C56.6868 44.7884 53.7122 42.4426 50.0363 42.4426Z" fill="#F4C4A4"/>
<path d="M50.0363 42.4426C46.3603 42.4426 43.3857 43.0955 43.3857 47.6663C43.3857 50.0846 44.5466 52.503 47.8597 53.2285L51.8501 42.636C51.2697 42.5151 50.6651 42.4426 50.0363 42.4426Z" fill="#F4CCB0"/>
<path d="M56.6868 47.6663C56.6868 45.2721 54.6312 43.2648 51.8501 42.636L47.8839 53.2285C48.5127 53.3736 49.2382 53.4462 50.0605 53.4462C53.7122 53.4462 56.6868 50.5441 56.6868 47.6663Z" fill="#F4C4A4"/>
<path d="M42.6602 45.6348C42.4426 45.6348 42.2249 45.5381 42.0556 45.3688L38.8392 41.8622C38.5248 41.5236 38.549 40.9915 38.8875 40.7013C39.2261 40.3869 39.7582 40.4111 40.0484 40.7497L43.2648 44.2564C43.5792 44.5949 43.555 45.127 43.2164 45.4172C43.0713 45.5623 42.8779 45.6348 42.6602 45.6348Z" fill="#261D17"/>
<path d="M77.4849 45.6348C77.7026 45.6348 77.9202 45.5381 78.0895 45.3688L81.3059 41.8622C81.6203 41.5236 81.5961 40.9915 81.2576 40.7013C80.919 40.3869 80.387 40.4111 80.0968 40.7497L76.8803 44.2564C76.5659 44.5949 76.5901 45.127 76.9287 45.4172C77.098 45.5623 77.2914 45.6348 77.4849 45.6348Z" fill="#261D17"/>
<path d="M61.5477 47.5937C61.5477 51.2455 65.2962 54.873 69.9395 54.873C76.2515 54.873 78.3313 51.2213 78.3313 47.5937C78.3313 41.8138 74.5828 41.0157 69.9395 41.0157C65.2962 41.0157 61.5477 43.9662 61.5477 47.5937ZM63.289 47.6663C63.289 44.7884 66.2636 42.4426 69.9395 42.4426C73.6154 42.4426 76.5901 43.0955 76.5901 47.6663C76.5901 50.5441 74.9456 53.4462 69.9395 53.4462C66.2636 53.4462 63.289 50.5441 63.289 47.6663Z" fill="#261D17"/>
<path d="M69.9395 42.4426C73.6155 42.4426 76.5901 43.0955 76.5901 47.6663C76.5901 50.5441 74.9456 53.4462 69.9395 53.4462C66.2636 53.4462 63.289 50.5441 63.289 47.6663C63.289 44.7884 66.2636 42.4426 69.9395 42.4426Z" fill="#F4C4A4"/>
<path d="M69.9395 42.4426C69.3108 42.4426 68.7062 42.5151 68.1258 42.636C65.3446 43.2648 63.289 45.2721 63.289 47.6663C63.289 50.0605 65.3204 52.4547 68.1016 53.2044L72.0919 42.5635C71.4148 42.4667 70.6892 42.4426 69.9395 42.4426Z" fill="#F4CCB0"/>
<path d="M72.0919 53.2285C75.4051 52.503 76.5659 50.0846 76.5659 47.6663C76.5659 44.0387 74.7037 42.8779 72.0919 42.5635L68.1016 53.2043C68.682 53.3736 69.2866 53.4462 69.9395 53.4462C70.7376 53.4462 71.4631 53.3736 72.0919 53.2285Z" fill="#F4C4A4"/>
<path d="M62.9504 48.5127H57.7025C57.6542 48.5127 56.2515 45.6348 56.3241 45.6348H63.6276C63.7001 45.6348 62.9988 48.5127 62.9504 48.5127Z" fill="#261D17"/>
<path d="M62.4909 48.5369C61.7654 48.029 60.8948 47.5212 59.9516 47.5212C59.2503 47.5212 58.549 47.9081 57.9686 48.1983C57.0254 48.682 57.0254 51.2697 57.0254 51.2697C57.5574 50.133 58.7183 49.4075 59.9758 49.4075C61.2092 49.4075 62.37 50.133 62.9262 51.2697C62.9021 51.2938 63.1923 49.0206 62.4909 48.5369Z" fill="#261D17"/>
<path d="M38.8634 50.2298C39.9033 56.3241 41.185 56.5901 43.0472 56.2757L41.0883 43.023C39.2261 43.3616 37.8234 44.1596 38.8634 50.2298Z" fill="#F4B382"/>
<path d="M78.9601 43.0472L77.0012 56.2999C78.8392 56.6143 80.1451 56.3241 81.185 50.2539C82.2007 44.1596 80.7981 43.3616 78.9601 43.0472Z" fill="#F4B382"/>
<path d="M80 50.8102C103.99 26.8198 73.8815 14.8972 60 14.8972C46.1185 14.8972 16.2757 27.0617 40 50.8102L42.2974 41.4027C53.3736 41.4027 62.8295 34.8972 69.6735 28.7545C72.5756 36.7836 80 50.8102 80 50.8102Z" fill="#3A1D12"/>
<path d="M66.4571 63.7969C66.4571 63.7969 63.023 66.1185 60 66.1185C56.977 66.1185 53.5429 63.7969 53.5429 63.7969C53.5429 63.4583 56.2757 62.5151 57.4365 62.3458C58.162 62.2249 60 62.9504 60 62.9504C60 62.9504 61.8138 62.2491 62.5151 62.3458C63.7001 62.5151 66.4571 63.7969 66.4571 63.7969Z" fill="#CC785E"/>
<path d="M66.4571 63.7968C66.4571 63.7968 63.023 67.0617 60 67.0617C56.977 67.0617 53.5429 63.7968 53.5429 63.7968C53.5429 63.7968 55.1149 64.1596 58.2829 63.9661C58.815 63.942 59.5163 64.3531 59.9758 64.3531C60.3869 64.3531 60.9915 63.9178 61.451 63.9419C64.7884 64.1354 66.4571 63.7968 66.4571 63.7968Z" fill="#C16952"/>
</g>
<defs>
<clipPath id="clip0_2_2">
<rect width="120" height="120" fill="white"/>
</clipPath>
</defs>
</svg>
